svg/300/sharp/speed_0_2x-fill.svg

<svg xmlns="http://www.w3.org/2000/svg" width="48" height="48" viewBox="0 -960 960 960"><path d="M140.001-287.77v-45.384h45.384v45.384h-45.384Zm110 0v-216.537h167.307v-122.539H250.001v-45.384h212.691v213.306H295.384v125.77h167.308v45.384H250.001Zm289.384-2.231 111.692-198.307-103.615-181.691h51.537l80.385 141.461 79.385-141.461h50.768L707.306-489.077l112.693 199.076h-50.538l-90.462-157.462-89.231 157.462h-50.383Z"/></svg>

<svg xmlns="http://www.w3.org/2000/svg" width="48" height="48" viewBox="0 -960 960 960"><path d="M140-287.77v-45.38h45.39v45.38H140Zm110 0v-216.54h167.31v-122.54H250v-45.38h212.69v213.31H295.38v125.77h167.31v45.38H250ZM539.38-290l111.7-198.31L547.46-670H599l80.38 141.46L758.77-670h50.77L707.31-489.08 820-290h-50.54L679-447.46 589.77-290h-50.39Z"/></svg>
